X: 5
T: Rubys Schottis
C: Bruce Sagan
R: shottish
N: Named for Bruce's dog
Z: 2020 John Chambers <jc:trillian.mit.edu>
M: 4/4
L: 1/8
K: A
|:\
"Am"A2 e2 c2 c2 | "Em"B>c B<A G2 G2 | "Am"A2 A<c "G"B2 B<d | "C"c2 c<e "Dm"d2 d<f |\
"Am"e3 d c2 c2 | "Em"B>c B<A G2 G2 | "F"A2 c2 "G"BA G2 |1 "Am"A3 G AB cB :|2 "Am"A3 G AB cd ||
|:\
"C"e3 d c2 e2 | "G"d>e d<c B2 B2 | "Am"c3 B A2 c2 | "Em"B>c B<A G2 G2 |\
"F"A2 A<c "G"B2 B<d | "C"c2 c<e "Dm"d2 d<f | "Am"e>d c<e "G"dcBG |1 "F"A3 G "G"AB cd :|2 "Am"A4 A4 |]

%%sep 2 1 500

